X: 14142
T: Frog In The Well, The
R: jig
M: 6/8
K: Eminor
E3 GEE|BEE GFE|D2D FDF|AFA dAF|
E2E GEE|BEE GFE|d2c BAG|1 ABE EED:|2 ABE EEf||
efe BAB|def afe|fdd Add|faf fed|
efe BAB|def afe|fdB AGA|1 BEE E2f:|2 BEE E2D||

